places/16x16-dark/folder-windows.svg

<svg height="16" width="16" xmlns="http://www.w3.org/2000/svg">
  <path d="m1.0215563 2.9821082 5.7037383-.7767665.0025 5.5017657-5.7010208.032677zm5.7010213 5.3588494.004432 5.5064914-5.7010219-.783765-.0003185-4.7596493zm.691426-6.2371744 7.5626824-1.1037833v6.6371082l-7.5626824.060028zm7.5644404 6.2889175-.001806 6.6072993-7.5626794-1.06744-.010573-5.5522835z" fill="#f2f2f2" stroke-width=".583333" />
</svg>

<?xml version="1.0" encoding="UTF-8" standalone="no"?>
<svg
   xmlns:dc="http://purl.org/dc/elements/1.1/"
   xmlns:cc="http://creativecommons.org/ns#"
   xmlns:rdf="http://www.w3.org/1999/02/22-rdf-syntax-ns#"
   xmlns:svg="http://www.w3.org/2000/svg"
   xmlns="http://www.w3.org/2000/svg"
   xmlns:sodipodi="http://sodipodi.sourceforge.net/DTD/sodipodi-0.dtd"
   xmlns:inkscape="http://www.inkscape.org/namespaces/inkscape"
   height="16"
   width="16"
   version="1.1"
   id="svg4"
   sodipodi:docname="folder-windows.svg"
   inkscape:version="0.92.4 (5da689c313, 2019-01-14)">
  <metadata
     id="metadata10">
    <rdf:RDF>
      <cc:Work
         rdf:about="">
        <dc:format>image/svg+xml</dc:format>
        <dc:type
           rdf:resource="http://purl.org/dc/dcmitype/StillImage" />
        <dc:title></dc:title>
      </cc:Work>
    </rdf:RDF>
  </metadata>
  <defs
     id="defs8" />
  <sodipodi:namedview
     pagecolor="#ffffff"
     bordercolor="#666666"
     borderopacity="1"
     objecttolerance="10"
     gridtolerance="10"
     guidetolerance="10"
     inkscape:pageopacity="0"
     inkscape:pageshadow="2"
     inkscape:window-width="1920"
     inkscape:window-height="1022"
     id="namedview6"
     showgrid="false"
     inkscape:zoom="13.906433"
     inkscape:cx="-8.6282851"
     inkscape:cy="2.1276396"
     inkscape:window-x="0"
     inkscape:window-y="32"
     inkscape:window-maximized="1"
     inkscape:current-layer="svg4" />
  <path
     inkscape:connector-curvature="0"
     style="fill:#f2f2f2;fill-opacity:1;stroke-width:0.58333337"
     d="m 1.0215563,2.9821082 5.7037383,-0.7767665 0.0025,5.5017657 -5.7010208,0.032677 z M 6.7225776,8.3409576 6.7270096,13.847449 1.0259877,13.063684 1.0256692,8.3040347 Z M 7.4140036,2.1037832 14.976686,0.9999999 V 7.6371081 L 7.4140036,7.6971361 Z M 14.978444,8.3927007 14.976638,15 7.4139586,13.93256 7.4033856,8.3802765 Z"
     id="path11" />
</svg>
